X:1
T:5 Songs from the Chinese Poets, 1st Series
T:The Old Fisherman of the Mists and Waters
T:To my Friend Alvin Langdon Coburn 
T:Five Songs from the Chinese Poets, 1st Series
T:Granville Bantock
T:1. The Old Fisherman of the Mists and Waters
T:Launcelot Cranmer-Byng after Zhizhang He 
T:Creative Commons copyright waiver (CC0 1.0 Universal)
T:Creative Commons copyright waiver (CC0 1.0 Universal)
T:Creative Commons copyright waiver (CC0 1.0 Universal)
T:Creative Commons copyright waiver (CC0 1.0 Universal)
T:Creative Commons copyright waiver (CC0 1.0 Universal)
C:Granville Bantock
Z:Zhizhang He
Z:Creative Commons copyright waiver (CC0 1.0 Universal)
%%score 1 { ( 2 4 ) | 3 }
L:1/8
Q:1/4=108
M:2/2
K:C
V:1 treble nm="Voice"
V:2 treble nm="Piano"
V:4 treble 
V:3 treble 
V:1
"^Lento non troppo." z8 | z8 | z8 | z8 | z8 | z8 | z8 | z8 | z8 | z8 | z8 | z8 | z8 | z8 | z8 | %15
w: |||||||||||||||
w: |||||||||||||||
 z8 | z8 | z8 | z8 | z8 | z8 |[Q:1/4=104] z8[Q:1/4=100] |[Q:1/4=140]"^Con moto." z8 | %23
w: ||||||||
w: ||||||||
[Q:1/4=144] z8 |[Q:1/4=148] z8 | z8 |[Q:1/4=120] z8 | z8 | z8 | z8 ||[Q:1/4=112]"^Lentamente." z8 | %31
w: ||||||||
w: ||||||||
 z8 | z8 | z8 | z2!p! E2 G2 E2 | A8- | A2 G4 A2 | E4 D4 | z4 (E2 G2) | A4 c2 A2 | G4 A4 | E8- | %42
w: |||The La- dy|Moon|_ is my|lo- ver,|My _|friends are the|o- ceans|four,|
w: |||Mon seul A-|\- mour|_ est la|lu- ne,|Mes a-|\- mis, les quatre|o- cé-|ans,|
 E2 z2 G4 | A8- | A2 c2 d2 c2 | A4 G4- | G4 E2 G2 | A4- (3A2 G2 A2 | c4 d4 | A8- | %50
w: _ The|heavens|_ have roofed me|o- ver,|_ And the|dawn _ is my|gold- en|door.|
w: _ Le|ciel|_ est mon seul|a- si-|le, Et chaque|aube _ est ma|por- te|d’or.|
 A4"^cresc. poco" d2 e2 | g4 e4 | d4- (3d2 B2 d2 | e4 d4 | z4!p! B2 d2 | %55
w: _ I would|lief- er|fol- * low the|con- dor|Or the|
w: _ Com- bien|j’ai- me-|rais _ mieux vous|sui- vre,|O con-|
"^Note to transcriber:\nFor the French lyrics we follow the standard\nof starting a new system with a dash when the\nword starts on the previous system.\n" e4 d4 | %56
w: sea- gull,|
w: \- dors, ô|
"^dim." (g8- | g2!>(! e2 d2 e2 | c4)!>)! c4- | c4 d4 | A8- | A4!p! (G2 A2) | c4 d2 c2 | A4 c4 | %64
w: soar-||* ing|_ from|ken,|_ Than _|bu- ry my|god- head|
w: mou-||et- tes,|_ là-|bas!|* Que d’al-|ler mè- ler|ma pen-|
 G4 E4 | z4"^espress." D2 E2 | G4 A2 G2 |"^rall."[Q:1/4=108]"^dim. poco" E8- |[Q:1/4=104] E4 G4 | %69
w: yon- der|In the|dust of the|whirl|_ of|
w: sé- e|A ce|vil tour- bil-|\- lon|_ hu-|
!pp![Q:1/4=60]"^Tempo IO."[Q:1/4=108] D8- |"^morendo"!>(! D8!>)! | z8 | z8 | z8 | z8 | z8 | %76
w: men|_||||||
w: main!|_||||||
[Q:1/4=106] z8[Q:1/4=102][Q:1/4=90][Q:1/4=70] | z8[Q:1/4=108] | z8 | z8 | z8 | z8 | z8 | z8 | z8 | %85
w: |||||||||
w: |||||||||
 z8 | z8 |] %87
w: ||
w: ||
V:2
 z4!pp! ([dg]4 |"_tranquillo  senza  espressione" [ea]4 [dg]4) | ([ea]4 [dg]4 | [ea]4) ([gc']4 | %4
 [ad']4 [gc']4) | z2 ([dg]2 [ea]2 [dg]2) | (3([ea]2!pp! [dg]2 [ea]2 (3[dg]2 [ea]2 [dg]2) | %7
 ([ea][dg][ea][dg] [ea][dg][ea][dg] | [ea][dg][ea][dg] [ea][dg][ea][dg]) | z2!p! (a4 c'2 | %10
 g2 a2 e2 d2 | c4 d2 g2 |"_dim." e8-) |!>(! e8!>)! |"^poco accel."!p! ([de]8- | e4 g4) | ([de]8- | %17
!<(! [de]2 d2) (d2 e2)!<)! | ([de]8- | e4 g4) |"_cresc." ([de]8- | %21
!<(! e2"^ritard.""_espress." a2) (a2 g2)!<)! |!f! (agag eded | AGAG EDED | %24
[K:bass] A,G,A,G, E,D,E,D, | %25
"^As written, there is an \nunexpected 'hiccup' in this \nrun, so I think the tie to \nthe higher A is an error\nV\nV\nV\nV\nV\nV\nV\nV\n"[I:staff +1] [A,,,A,,](G,,A,,G,,) (E,,D,,E,,D,,)) | %26
[I:staff -1][K:treble]"^rall." z8 | z8 | z8 |"_lunga" !fermata!z8 ||!pp! (agag agag | egeg egeg | %32
 eded eded | egeg egeg |!pp! agag agag | egeg egeg | eded eded | egeg egeg) | (agag agag | %39
!pp! egeg egeg | eded eded | egeg egeg) | (agag agag | ac'ac' ac'ac' | d'c'd'c' d'c'd'c' | %45
 ac'ac' ac'ac') | (agag agag | egeg egeg | eded edeg | a"_cresc. poco"ged AGED | %50
[I:staff +1] A,G,E,D, A,,G,,E,,D,,) |[I:staff -1] z2!mp! (a4 c'2 | g2 a2)[I:staff +1] (A2 G2 | %53
 c4)[I:staff -1] d2 g2 |"_dim." e8- |!p! e8- | e2"^dolce" d2 (d2 e2) |"_espress." e8- | %58
 e2 d2 (d2 e2) |"_dim." (c4 d4 |!>(! A4 c4-!>)! |!p! c2 d2 _e2 f2) | (c2 _e2 f2 g2 | %63
"^IMSLP236270 has a phrase mark in the previous bar \nwhich extends beyond the last note, but omits the\nimplied continuation of the phrase in this bar.\n""_cresc." [Ad]4 [Gc]4) | %64
!<(! (=EGAc) (egac')!<)! |!mf! (d'!>(!c'ag aged | edcA GEDC)!>)! | z4"_dim. poco" ([DG]4 | %68
 [EA]4 [Gc]4 |!pp! [Ad]4)!p! ([dg]4 | [ea]4 [dg]4 | [ea]4) ([gc']4 | [ad']4 [gc']4 | %73
 [ea]4) ([dg]4 | [ea]4 [dg]4 |"_cresc. poco" [ea]4) ([gc']4 |!<(! [ad']4 [gc']4)!<)! | %77
!mf! (!arpeggio!^g4!p! a4- | a2 =b2 d'2 b2 | e'2) !fermata!z2!p!!8va(! ([d'=g']4 | %80
 [e'a']4 [d'g']4 | [e'a']4)"_dim." ([g'c'']4 | [a'd'']4!>(! [g'c'']4- | [g'c'']4)!8va)!!>)! z4 | %84
 z8 | z8 |!ppp! !fermata![ae']8 |] %87
V:3
 z8 | z8 | z2!pp! ([DG]2 [EA]2 [DG]2) | z2 ([EA]2 [DG]2 [EA]2) | z2 ([Gc]2 [Ad]2 [Gc]2 | %5
 [EA]4 [DG]4) | z4 ([EA]4- | [EA]4 [Gc]4- | [Gc]2 A2 G2 E2) | ([DG][EA][DG][EA] [DG][EA][DG][EA] | %10
 [DG][EA][DG][EA] [DG][EA][DG][EA]) | (3[DG]2 [EA]2 [DG]2 (3[EA]2 [DG]2 [EA]2 | %12
 ([DG]2 [EA]2 [Gc]2 [Ad]2) | (3[Gc]4 [EA]4 [DG]4 |[K:bass]!ped! (A,,D,E,G,)[K:treble] (A,DEG) | %15
 (GEDA,)[K:bass] (G,E,D,A,,)!ped-up! |!ped! (C,,G,,C,E,) (G,_B,DE) | %17
 (ED_B,G,) (E,C,G,,C,,)!ped-up! |!ped! (A,,D,E,G,)[K:treble] (A,DEG) | %19
 (GEDA,)[K:bass] (G,E,D,A,,)!ped-up! |!ped! (_B,,D,E,A,)[K:treble] (_B,DEA) | %21
 (AED_B,)[K:bass] (A,E,D,_B,,)!ped-up! |!ped! [A,,,A,,]8- | [A,,,A,,]8- | [A,,,A,,]8- | %25
 z8!ped-up! |!>(!"^dim." (A,,,8 | _B,,,8- | ([B,,,D,,]8!>)! |!pp! !fermata![A,,,E,,]8-) || %30
 [A,,,E,,]2) z2 z4 |[K:treble] (GAGA GAGA | GEGE GEGE | DEDE DEDE | GEGE GEGE) | (GAGA GAGA | %36
 GEGE GEGE | DEDE DEDE | GEGE GEGE) | (GAGA GAGA | GEGE GEGE | DEDE DEDE | GEGE GEGE) | %43
 (GAGA GAGA | cAcA cAcA | cdcd cdcd | cAcA cAcA) | (GAGA GAGA | GEGE GEGA | c) z z2 z4 | %50
[K:bass] z8 |!pp!!<(!!ped! (A,,,D,,E,,G,,) (A,,D,E,G,) |[K:treble] (A,DEG[I:staff -1] edeg!<)! | %53
!>(! aged[I:staff +1] (A"_This short slur contradicts\nthe two bar slur and \nshould be removed\n"GED)) | %54
[K:bass] (A,G,E,D,) (A,,G,,E,,D,,)!ped-up!!>)! |!<(!!ped! (C,,G,,C,E, G,_B,DE)!<)! | %56
!>(! (ED_B,G, E,C,G,,C,,)!ped-up!!>)! |!<(!!ped! (C,,G,,C,E, G,_B,DE)!<)! | %58
 (ED_B,G, E,C,G,,C,,)!ped-up! |!ped! (F,,C,F,A,[I:staff -1] C_EGA) | %60
 (AG_EC[I:staff +1] A,F,C,F,,)!ped-up! |!ped! (F,,C,F,A,[I:staff -1] C_EGA) | %62
 (AG_EC[I:staff +1] A,F,C,F,,)!ped-up! |!ped! (=E,,G,,A,,C,) (=E,G,A,C) |[K:treble] ([EA]4 [DG]4 | %65
[K:bass] [G,C]4) ([E,A,]4 | [D,G,]4 [E,A,]4)!ped-up! | z8 | z8 | %69
!<(!!ped! (A,,D,E,G,)[K:treble] (A,DEG)!<)! |!>(! (GEDA,)[K:bass] (G,E,D,A,,)!ped-up!!>)! | %71
!<(!!ped! (A,,D,E,G,)[K:treble] (A,DEG)!<)! |!>(! (GEDA,)[K:bass] (G,E,D,A,,)!ped-up!!>)! | %73
!<(!!ped! (A,,D,E,G,)[K:treble] (A,DEG)!<)! |!>(! (GEDA,)[K:bass] (G,E,D,A,,)!ped-up!!>)! | %75
!ped! (_B,,D,E,A,)[K:treble] (_B,DEG) | (GED_B,)[K:bass] (A,E,D,_B,,)!ped-up! | %77
 !arpeggio![A,,D,^F,C]4 z4 | z8 | z8 |[K:treble] z8 | z2!p! ([DG]2 [EA]2 [DG]2) | %82
 z2"_dim." ([dg]2 [ea]2 [dg]2 |!>(! [ea]4) ([gc']4 | [ad']4!>)!!pp! [gc']4) | z8 | %86
 !fermata![gd']8 |] %87
V:4
 x8 | x8 | x8 | x8 | x8 | x8 | x8 | x8 | x8 | x8 | x8 | x8 | x8 | x8 | x8 | d8 | %16
 z2"_espress." A2 A2 _B2 | _B8 | x8 | d8 | z2 A2 A2 _B2 | [_Bd]8 | x8 | x8 |[K:bass] x8 | x8 | %26
[K:treble] x8 | x8 | x8 | x8 || x8 | x8 | x8 | x8 | x8 | x8 | x8 | x8 | x8 | x8 | x8 | x8 | x8 | %43
 x8 | x8 | x8 | x8 | x8 | x8 | x8 | x8 | x8 | x8 | x8 | x8 | z2 A2 (A2 _B2) | _B8- | %57
 B2 A2 (A2 _B2) | _B8 | A8 | x8 | x8 | x8 | x8 | x8 | x8 | x8 | x8 | x8 | x8 | x8 | x8 | x8 | x8 | %74
 x8 | x8 | x8 | !arpeggio![^Gc]4 z4 | x8 | x4!8va(! x4 | x8 | x8 | x8 | x4!8va)! x4 | x8 | x8 | %86
 x8 |] %87

